X: 189
T:Sweet Susan. JaW.188
M:3/4
Q:60
C:"A Song Tune, May The 9th 1835"
S:James Winder Ms, Lancashire, 1835-41
R:Air
O:England
A:Wyresdale,Lancashire
H:1/8
Z:vmp.Chris Partington, Aug 2004
K:D
A2|FDA3F|(GA) (Be) (dc)|(BA) (Bd) (ce)|(df)d2c2|d4:|!
|:d2|ed (e>fge)|cA (d>efd)|BB G2FE|FA D3A|!
FDA3F|GA Bd dc|BA Bd ce|dfd2c2|d4:|]
